Unity IDE.svg

<?xml version="1.0" encoding="UTF-8"?>
<svg xmlns="http://www.w3.org/2000/svg" xmlns:xlink="http://www.w3.org/1999/xlink" width="100pt" height="100pt" viewBox="0 0 100 100" version="1.1">
<g id="surface1">
<path style=" stroke:none;fill-rule:nonzero;fill:rgb(0%,0%,0%);fill-opacity:1;" d="M 88.164062 50.414062 L 93.804688 40.859375 C 94.03125 40.386719 94.0625 39.839844 93.890625 39.34375 L 82.71875 7.34375 C 82.378906 6.371094 81.359375 5.8125 80.359375 6.054688 L 47.523438 14.054688 C 46.898438 14.210938 46.382812 14.65625 46.140625 15.257812 L 42.648438 24 L 32 24 C 31.445312 24 30.90625 24.234375 30.53125 24.640625 L 6.53125 50.640625 C 5.789062 51.441406 5.828125 52.691406 6.617188 53.445312 L 31.789062 77.445312 C 32.15625 77.804688 32.65625 78 33.164062 78 L 44.640625 78 L 48.140625 86.742188 C 48.398438 87.386719 48.972656 87.851562 49.65625 87.96875 L 84.578125 93.96875 C 85.628906 94.148438 86.640625 93.472656 86.867188 92.429688 L 93.953125 59.96875 C 94.0625 59.464844 93.972656 58.9375 93.703125 58.5 Z M 42.648438 24 L 70.835938 18.835938 L 56 48 L 22.335938 48 Z M 44.648438 78 L 22.335938 56 L 56 56 L 73.5 82.335938 Z M 80.773438 77.796875 L 64 52 L 78.664062 22.835938 L 88.164062 50.421875 Z M 80.773438 77.796875 "/>
</g>
</svg>

<?xml version="1.0" encoding="utf-8"?>
<svg version="1.0" id="Layer_1" xmlns="http://www.w3.org/2000/svg" xmlns:xlink="http://www.w3.org/1999/xlink" x="0px" y="0px"
	 width="100px" height="100px" viewBox="0 0 100 100" enable-background="new 0 0 100 100" xml:space="preserve">
<g id="surface1">
	<path d="M88.2,50.4l5.6-9.6c0.2-0.5,0.3-1,0.1-1.5l-11.2-32c-0.3-1-1.4-1.5-2.4-1.3l-32.8,8c-0.6,0.2-1.1,0.6-1.4,1.2L42.6,24H32
		c-0.6,0-1.1,0.2-1.5,0.6l-24,26c-0.7,0.8-0.7,2.1,0.1,2.8l25.2,24c0.4,0.4,0.9,0.6,1.4,0.6h11.5l3.5,8.7c0.3,0.6,0.8,1.1,1.5,1.2
		l34.9,6c1.1,0.2,2.1-0.5,2.3-1.5L94,60c0.1-0.5,0-1-0.3-1.5L88.2,50.4z M42.6,24l28.2-5.2L56,48H22.3L42.6,24z M44.6,78L22.3,56H56
		l17.5,26.3L44.6,78z M80.8,77.8L64,52l14.7-29.2l9.5,27.6L80.8,77.8z"/>
</g>
</svg>
